X:0098
T:Marquis of Granby - Shambuy.
N:no repeat printed at the end
M:6/8
L:1/8
Q:3/8=120
I: :: ||
Z:Jack Campin * www.campin.me.uk * 2009
K:G
 G2d      dBd    |(e/f/g)B  A2B| G2d      dBd    | e3 g3 |
 G2d      dBd    |(e/f/g)B TA2G|(g/a/b)g  afd    | e3 g3:|
(g/a/b)g (f/g/a)f|(e/f/g)e  dBG|(g/a/b)g (f/g/a)f|Te3 g3 |
(g/a/b)g  afd    |(e/f/g)e  dBG| GBd      dBd    | e3 g3|]

